X:1
T:Title
%%score { 1 | ( 2 3 ) }
L:1/8
Q:1/4=100
M:4/4
K:F
V:1 treble nm="Grand Piano"
V:2 bass 
V:3 bass 
V:1
 DE FG/F/ [^CE]4 | ^CD EF/E/ [A,D]4 | [Fd]3 [FA] [Ec]2 B2 | A8 | DE FG/F/ [^CE]4 | %5
 ^CD EF/E/ [A,D]4 | AGFE DEFE | [A,D]6- [A,D][DA] | [Fd]3 [Fd] [^Fc]ccc | [DB]6- [DB]G | %10
 [Ec]3 c BBBB | [DA]6- [DA]F | [DB]3 B AAGF | [A,^CE]3 F/G/ A3 D | [DF]3 D [^CE]4 | [A,D]8 |] %16
V:2
 D,E, F,G,/F,/ A,,^C,/E,/ F,G, | ^C,D, E,F,/E,/ D,A,,/F,,/ z A | [D,A,]4 [C,G,]2 [G,B,D]2 | %3
 [D,F,D]8 | D,E, F,G,/F,/ A,,E, G,2 | A,,D, E,F,/E,/ D,A,, z[K:treble] B | %6
 A,[K:bass]G,F,E, D,E,F,E, | D,2 A,,2 D,,3 D, | [F,,D,]4 z[K:treble] ^FFF | G,2 ^F,=F, z2 z E | %10
 C,2 z[K:treble] E GGGG | z4 F,4 | G,,2 z D DDDD | z2 z F,/G,/ [D,A,D]4 | [F,,D,]4 z2 z ^C | %15
 D,2 A,,F,, D,,4 |] %16
V:3
 x8 | z4 z2 D,,2 | x8 | x8 | x8 | z4 z2 D,,2[K:treble] | x[K:bass] x7 | x8 | %8
 z4 [D,A,]2[K:treble] [A,C]2 | z4 E,4 | z2 G,2[K:treble] [G,B,]2 [G,B,]2 | D,,2 A,,D, z2 z D | %12
 z2 D,2 [F,A,]2 [F,A,]2 | A,,4 z4 | z4 [A,,A,]4 | x8 |] %16

